X:1
T:Affection, LM
T:Affection, LM
T:John Greenwood, 1838
T:Public Domain Courtesy of the Cyber Hymnal™
C:John Greenwood, 1838
Z:Public Domain
Z:Courtesy of the Cyber Hymnal™
%%score ( 1 2 ) ( 3 4 )
L:1/8
Q:1/4=113
M:none
K:C
V:1 treble 
V:2 treble 
V:3 bass 
V:4 bass 
V:1
 [EG]2 | [Gc]2 [FB]2 c3 [DF] | [CE]2 [B,D]2 C3 [B,D] | [CE]2 [DG]2 [^Fc] (AB)[Ec] | %4
 [DB]2 A2 !fermata![B,G]2 [Dd]2 | (BG) (AB) c3 z x | [FA]2 [Ad]2 c2 BG | [Gc]2 [FB]2 c3 [DF] | %8
 [CE]2 [B,D]2 C2 |] %9
V:2
 x2 | x4 (E>FG) x | x4 C3 x | x5 D2 x | x2 (D>C) x4 | F2 G2 G2 (E2 G) | x4 G3 G | x4 (G>FE) x | %8
 x4 C2 |] %9
V:3
 [C,C]2 | [E,C]2 [G,D]2 C3 [F,A,] | G,2 (G,>F,) [C,E,]3 [G,,G,] | %3
 [C,G,]2 [B,,B,]2 C2 [G,B,][C,G,] | [D,G,]2 [D,^F,]2 !fermata![G,,G,]2 [G,,B,]2 | %5
 (DB,) (CD) [E,C]2 [C,C]2 x | [F,C]2 [D,F]2 E2 D[F,B,] | [E,C]2 [D,D]2 ([C,E]>[D,D][E,C])[F,A,] | %8
 G,2 (G,>F,) [C,E,]2 |] %9
V:4
 x2 | x4 (C,>D,E,) x | x2 G,,2 x4 | x4 A,, ^F, x2 | x8 | G,2 F,2 x5 | x4 G,3 x | x8 | %8
 G,2 G,,2 x2 |] %9

